flaticon/transportation/car-9.svg

<svg xmlns="http://www.w3.org/2000/svg" width="32" height="32" viewBox="0 0 24 24">
    <path d="M 22.414062 9.726562 C 22.316406 9.609375 22.171875 9.542969 22.019531 9.542969 C 20.886719 9.542969 19.800781 9.117188 18.964844 8.347656 L 16.441406 6.023438 C 15.9375 5.558594 15.285156 5.304688 14.597656 5.304688 L 2.382812 5.304688 C 2.273438 5.304688 2.164062 5.339844 2.078125 5.40625 C 1.953125 5.5 -0.921875 7.777344 0.304688 15.53125 C 0.34375 15.78125 0.554688 15.964844 0.808594 15.964844 L 2.824219 15.964844 C 2.929688 17.488281 4.199219 18.695312 5.75 18.695312 C 7.296875 18.695312 8.570312 17.488281 8.671875 15.964844 L 14.382812 15.964844 C 14.488281 17.488281 15.757812 18.695312 17.308594 18.695312 C 18.859375 18.695312 20.128906 17.488281 20.234375 15.964844 L 23.085938 15.964844 C 23.269531 15.964844 23.4375 15.867188 23.527344 15.710938 C 23.59375 15.597656 25.082031 12.945312 22.414062 9.726562 Z M 5.75 17.675781 C 4.695312 17.675781 3.839844 16.816406 3.839844 15.765625 C 3.839844 14.710938 4.695312 13.855469 5.75 13.855469 C 6.804688 13.855469 7.660156 14.710938 7.660156 15.765625 C 7.660156 16.816406 6.804688 17.675781 5.75 17.675781 Z M 17.308594 17.675781 C 16.253906 17.675781 15.398438 16.816406 15.398438 15.765625 C 15.398438 14.710938 16.253906 13.855469 17.308594 13.855469 C 18.363281 13.855469 19.21875 14.710938 19.21875 15.765625 C 19.21875 16.816406 18.363281 17.675781 17.308594 17.675781 Z M 22.757812 14.941406 L 20.121094 14.941406 C 19.765625 13.726562 18.640625 12.832031 17.308594 12.832031 C 15.976562 12.832031 14.851562 13.726562 14.496094 14.941406 L 8.5625 14.941406 C 8.207031 13.726562 7.082031 12.832031 5.75 12.832031 C 4.417969 12.832031 3.292969 13.726562 2.9375 14.941406 L 1.246094 14.941406 C 0.414062 9.058594 2.128906 6.804688 2.585938 6.324219 L 14.597656 6.324219 C 15.027344 6.324219 15.433594 6.484375 15.75 6.773438 L 18.273438 9.101562 C 19.238281 9.988281 20.472656 10.5 21.773438 10.558594 C 23.386719 12.621094 22.996094 14.320312 22.757812 14.941406 Z M 22.757812 14.941406"/>
    <path d="M21.617188 10.742188L22.316406 11.4375 21.59375 12.160156 20.898438 11.464844zM5.65625 6.804688L2.960938 6.804688C2.679688 6.804688 2.449219 7.03125 2.449219 7.316406L2.449219 11.105469C2.449219 11.386719 2.679688 11.613281 2.960938 11.613281L5.65625 11.613281C5.941406 11.613281 6.167969 11.386719 6.167969 11.105469L6.167969 7.316406C6.167969 7.03125 5.941406 6.804688 5.65625 6.804688zM5.148438 10.59375L3.472656 10.59375 3.472656 7.824219 5.148438 7.824219zM10.113281 6.804688L7.414062 6.804688C7.132812 6.804688 6.902344 7.03125 6.902344 7.316406L6.902344 11.105469C6.902344 11.386719 7.132812 11.613281 7.414062 11.613281L10.113281 11.613281C10.394531 11.613281 10.621094 11.386719 10.621094 11.105469L10.621094 7.316406C10.621094 7.03125 10.394531 6.804688 10.113281 6.804688zM9.601562 10.59375L7.925781 10.59375 7.925781 7.824219 9.601562 7.824219zM17.375 9.195312L14.789062 6.929688C14.695312 6.847656 14.578125 6.804688 14.453125 6.804688L11.753906 6.804688C11.472656 6.804688 11.242188 7.03125 11.242188 7.316406L11.242188 11.105469C11.242188 11.386719 11.472656 11.613281 11.753906 11.613281L17.039062 11.613281C17.324219 11.613281 17.550781 11.386719 17.550781 11.105469L17.550781 9.578125C17.550781 9.433594 17.488281 9.292969 17.375 9.195312zM16.53125 10.59375L12.265625 10.59375 12.265625 7.824219 14.261719 7.824219 16.53125 9.8125zM16.53125 10.59375"/>
</svg>

<svg xmlns="http://www.w3.org/2000/svg" width="32" height="32" viewBox="0 0 24 24">
    <path d="M22.414 9.727a.512.512 0 0 0-.394-.184 4.503 4.503 0 0 1-3.055-1.195L16.44 6.023a2.706 2.706 0 0 0-1.843-.718H2.383a.502.502 0 0 0-.305.101c-.125.094-3 2.371-1.773 10.125.039.25.25.434.504.434h2.015a2.936 2.936 0 0 0 2.926 2.73 2.932 2.932 0 0 0 2.922-2.73h5.71a2.936 2.936 0 0 0 2.927 2.73c1.55 0 2.82-1.207 2.925-2.73h2.852a.509.509 0 0 0 .441-.254c.067-.113 1.555-2.766-1.113-5.984zM5.75 17.676a1.91 1.91 0 1 1 0-3.82 1.91 1.91 0 0 1 0 3.82zm11.559 0a1.91 1.91 0 1 1 0-3.82 1.91 1.91 0 0 1 0 3.82zm5.449-2.735H20.12a2.936 2.936 0 0 0-2.812-2.109 2.936 2.936 0 0 0-2.813 2.11H8.562a2.936 2.936 0 0 0-2.812-2.11 2.936 2.936 0 0 0-2.813 2.11h-1.69c-.833-5.883.882-8.137 1.339-8.618h12.012c.43 0 .836.16 1.152.45l2.523 2.328a5.529 5.529 0 0 0 3.5 1.457c1.614 2.062 1.223 3.761.985 4.382zm0 0"/>
    <path d="M21.617 10.742l.7.695-.723.723-.696-.695zm0 0M5.656 6.805H2.961a.511.511 0 0 0-.512.511v3.79c0 .28.23.507.512.507h2.695a.508.508 0 0 0 .512-.508V7.316a.508.508 0 0 0-.512-.511zm-.508 3.789H3.473v-2.77h1.675zm0 0M10.113 6.805H7.414a.511.511 0 0 0-.512.511v3.79c0 .28.23.507.512.507h2.7a.507.507 0 0 0 .507-.508V7.316a.508.508 0 0 0-.508-.511zm-.511 3.789H7.926v-2.77h1.676zm0 0M17.375 9.195L14.789 6.93a.504.504 0 0 0-.336-.125h-2.7a.511.511 0 0 0-.51.511v3.79c0 .28.23.507.51.507h5.286a.508.508 0 0 0 .512-.508V9.578a.506.506 0 0 0-.176-.383zm-.844 1.399h-4.265v-2.77h1.996l2.27 1.989zm0 0"/>
</svg>
